public/images/iconPeople.svg

<svg fill="none" height="16" viewBox="0 0 16 16" width="16" xmlns="http://www.w3.org/2000/svg"><g stroke="#000" stroke-linecap="round" stroke-linejoin="round" stroke-width="1.33333"><path d="m10.6663 14v-1.3333c0-.7073-.2809-1.3856-.78101-1.8857-.50009-.5-1.17837-.781-1.88562-.781h-4c-.70724 0-1.38552.281-1.88561.781-.5001.5001-.78105 1.1784-.78105 1.8857v1.3333"/><path d="m10.667 2.08545c.5718.14825 1.0783.48218 1.4398.94937.3615.4672.5577 1.04122.5577 1.63196s-.1962 1.16476-.5577 1.63196-.868.80113-1.4398.94938"/><path d="m14.667 13.9998v-1.3334c-.0004-.5908-.1971-1.1648-.5591-1.6318-.362-.4669-.8688-.8005-1.4409-.9482"/><path d="m5.99967 7.33333c1.47276 0 2.66667-1.1939 2.66667-2.66666s-1.19391-2.66667-2.66667-2.66667c-1.47275 0-2.66666 1.19391-2.66666 2.66667s1.19391 2.66666 2.66666 2.66666z"/></g></svg>

<svg width="16" height="16" viewBox="0 0 16 16" fill="none" xmlns="http://www.w3.org/2000/svg">
<path d="M10.6663 14V12.6667C10.6663 11.9594 10.3854 11.2811 9.88529 10.781C9.3852 10.281 8.70692 10 7.99967 10H3.99967C3.29243 10 2.61415 10.281 2.11406 10.781C1.61396 11.2811 1.33301 11.9594 1.33301 12.6667V14" stroke="black" stroke-width="1.33333" stroke-linecap="round" stroke-linejoin="round"/>
<path d="M10.667 2.08545C11.2388 2.2337 11.7453 2.56763 12.1068 3.03482C12.4683 3.50202 12.6645 4.07604 12.6645 4.66678C12.6645 5.25752 12.4683 5.83154 12.1068 6.29874C11.7453 6.76594 11.2388 7.09987 10.667 7.24812" stroke="black" stroke-width="1.33333" stroke-linecap="round" stroke-linejoin="round"/>
<path d="M14.667 13.9998V12.6664C14.6666 12.0756 14.4699 11.5016 14.1079 11.0346C13.7459 10.5677 13.2391 10.2341 12.667 10.0864" stroke="black" stroke-width="1.33333" stroke-linecap="round" stroke-linejoin="round"/>
<path d="M5.99967 7.33333C7.47243 7.33333 8.66634 6.13943 8.66634 4.66667C8.66634 3.19391 7.47243 2 5.99967 2C4.52692 2 3.33301 3.19391 3.33301 4.66667C3.33301 6.13943 4.52692 7.33333 5.99967 7.33333Z" stroke="black" stroke-width="1.33333" stroke-linecap="round" stroke-linejoin="round"/>
</svg>
